svg/free/satelite.svg

<svg version="1.1" xmlns="http://www.w3.org/2000/svg" width="24" height="24" viewBox="0 0 24 24">
<title>satelite</title>
<path d="M0.75 0.75v22.5h22.5v-22.5zM21.75 2.25v13.42l-3.49-3.49-3.635 3.635-5.25-5.25-7.125 7.125v-15.439zM2.25 19.811l7.125-7.125 9.064 9.064h-16.189zM20.561 21.75l-4.875-4.875 2.574-2.574 3.49 3.49v3.959z"></path>
<path d="M5.625 3.75h-1.875v1.875c1.036 0 1.875-0.839 1.875-1.875v0z"></path>
<path d="M9.216 3.75h-1.544c-0.544 1.906-2.015 3.377-3.882 3.912l-0.040 0.010v1.544c2.738-0.61 4.855-2.728 5.457-5.418l0.009-0.048z"></path>
</svg>

<svg xmlns="http://www.w3.org/2000/svg" width="24" height="24" viewBox="0 0 24 24"><path d="M.75.75v22.5h22.5V.75zm21 1.5v13.42l-3.49-3.49-3.635 3.635-5.25-5.25L2.25 17.69V2.251zM2.25 19.811l7.125-7.125 9.064 9.064H2.25zm18.311 1.939l-4.875-4.875 2.574-2.574 3.49 3.49v3.959z"/><path d="M5.625 3.75H3.75v1.875A1.874 1.874 0 005.625 3.75zM9.216 3.75H7.672A5.672 5.672 0 013.79 7.662l-.04.01v1.544c2.738-.61 4.855-2.728 5.457-5.418l.009-.048z"/></svg>
